svg/fluentui-system-icons/ic_fluent_food_chicken_leg_20_regular.svg

<svg width="20" height="20" viewBox="0 0 20 20" fill="none" xmlns="http://www.w3.org/2000/svg">
<path d="M18 7C18 4.23858 15.7614 2 13 2C10.901 2 9.1053 3.2932 8.36382 5.12444C8.34547 5.16604 8.32895 5.20866 8.31413 5.25218C8.2086 5.53502 8.12792 5.82994 8.07477 6.13423C7.64815 7.62729 7.24178 8.41632 7.02981 8.76313L5.14645 10.6465C5.00345 10.7895 4.96067 11.0046 5.03806 11.1914C5.11545 11.3782 5.29777 11.5001 5.5 11.5001H5.88902L3.88585 13.5032C2.83439 13.5624 2 14.4338 2 15.5C2 16.1271 2.2892 16.687 2.73959 17.0529C2.81553 17.1146 2.88539 17.1845 2.94708 17.2604C3.31298 17.7108 3.87291 18 4.5 18C5.56974 18 6.44332 17.1602 6.49735 16.1039L8.5 14.1012V14.5001C8.5 14.7023 8.62182 14.8846 8.80866 14.962C8.9955 15.0394 9.21055 14.9966 9.35355 14.8536L11.2251 12.982C11.5701 12.77 12.3788 12.3508 13.9336 11.9129C14.1702 11.8682 14.401 11.8068 14.6247 11.73C14.7555 11.6964 14.8797 11.6494 14.9942 11.5864C16.7623 10.8166 18 9.05341 18 7ZM8.5 12.687L5.71551 15.4715C5.56347 15.6235 5.5 15.8206 5.5 16C5.5 16.5523 5.05228 17 4.5 17C4.18676 17 3.9074 16.8566 3.72324 16.6299C3.61814 16.5005 3.49949 16.3819 3.37013 16.2768C3.14344 16.0926 3 15.8133 3 15.5C3 14.9477 3.44772 14.5 4 14.5C4.17534 14.5 4.36599 14.4373 4.51287 14.2904L7.30324 11.5001H8.5V12.687ZM13 3C15.2091 3 17 4.79086 17 7C17 8.6493 16.0017 10.0666 14.5744 10.6784C14.5555 10.6865 14.5371 10.6957 14.5194 10.7061C14.4875 10.7247 14.4398 10.7455 14.37 10.7629L14.3606 10.7652C14.3459 10.7689 14.3314 10.7732 14.3171 10.7782C14.1273 10.8444 13.931 10.8966 13.7293 10.9338C13.7143 10.9365 13.6995 10.94 13.6848 10.9441C11.9681 11.4257 11.059 11.9022 10.6436 12.1663C10.6127 12.1859 10.5841 12.2088 10.5583 12.2347L9.5 13.2929V11.0589C9.5 10.9263 9.44732 10.7991 9.35355 10.7053L9.29473 10.6465C9.20096 10.5527 9.07379 10.5001 8.94118 10.5001H6.70711L7.77762 9.42954C7.80378 9.40338 7.82696 9.37439 7.84673 9.3431C8.11048 8.92576 8.57363 8.03608 9.04392 6.3822C9.04893 6.36459 9.05296 6.34672 9.05601 6.32868C9.09879 6.07527 9.1654 5.83006 9.25344 5.59536C9.25558 5.58964 9.25762 5.58389 9.25955 5.5781C9.26631 5.55786 9.27327 5.54019 9.2802 5.5248C9.28291 5.51876 9.2855 5.51267 9.28798 5.50653C9.88013 4.0363 11.3196 3 13 3Z" fill="#212121"/>
</svg>

<svg xmlns="http://www.w3.org/2000/svg" width="20" height="20"><path d="M18 7a5 5 0 0 0-9.925-.866c-.427 1.493-.833 2.282-1.045 2.63l-1.884 1.883a.5.5 0 0 0 .354.853h.389l-2.003 2.003a2 2 0 0 0-1.146 3.55c.076.062.145.131.207.207a2 2 0 0 0 3.55-1.157L8.5 14.102v.4a.5.5 0 0 0 .854.353l1.871-1.872c.345-.212 1.154-.631 2.709-1.07.236-.044.467-.105.69-.182.131-.034.256-.08.37-.144A5.001 5.001 0 0 0 18 7Zm-9.5 5.687-2.784 2.785A.746.746 0 0 0 5.5 16a1 1 0 0 1-1.777.63 2.427 2.427 0 0 0-.353-.353A1 1 0 0 1 4 14.5a.724.724 0 0 0 .513-.21l2.79-2.79H8.5v1.187ZM13 3a4 4 0 0 1 1.574 7.678.488.488 0 0 0-.055.028.57.57 0 0 1-.149.057l-.01.002a3.971 3.971 0 0 1-.676.179c-1.716.482-2.625.958-3.04 1.222a.493.493 0 0 0-.086.069L9.5 13.293v-2.234a.5.5 0 0 0-.146-.354l-.06-.059a.5.5 0 0 0-.353-.146H6.707l1.07-1.07a.5.5 0 0 0 .07-.087c.263-.417.727-1.307 1.197-2.96a.5.5 0 0 0 .012-.054 3.967 3.967 0 0 1 .232-.822A4.001 4.001 0 0 1 13 3Z"/></svg>
